static/assets/images/exchanges/merlinswap.svg

<svg width="215" height="256" viewBox="0 0 215 256" fill="none" xmlns="http://www.w3.org/2000/svg">
<path d="M55.7707 256L83.454 218.14C94.1635 222.147 105.884 224.351 118.008 224.351C122.049 224.351 126.292 224.15 130.131 223.549C130.333 223.549 130.333 223.549 130.535 223.549C178.224 217.339 215 177.076 215 128.2C215 113.177 211.565 98.9542 205.301 86.5352C203.482 82.5289 201.26 78.9233 198.835 75.3176C195.804 70.7104 192.369 66.5039 188.731 62.698C183.882 57.4898 178.426 52.8826 172.566 49.0767C174.183 32.0501 187.115 0 187.115 0L162.665 29.6463C145.489 15.4241 123.463 6.81063 99.215 6.81063C44.4549 6.81063 0 50.8794 0 105.365C0 136.614 16.3675 163.255 35.766 184.688C45.2632 195.305 55.3666 203.518 67.2886 210.529L55.7707 256ZM15.1551 113.978C15.1551 60.8951 58.5997 17.8278 112.148 17.8278C130.131 17.8278 147.105 22.6354 161.452 31.0485L154.178 39.061C143.064 34.6541 130.738 32.0501 117.806 32.0501C64.2576 32.0501 20.813 75.1173 20.813 128.2C20.813 137.615 22.2275 146.829 24.8543 155.643C18.5902 143.023 15.1551 128.801 15.1551 113.978ZM83.0499 202.316C59.61 187.893 44.0508 162.053 44.0508 132.808C44.0508 100.356 63.0452 72.313 90.7285 59.0923C68.2989 75.9186 53.75 102.761 53.75 132.808C53.75 160.852 66.2782 185.89 86.0809 202.717C87.4954 203.918 89.1119 205.321 90.7285 206.522C88.1016 205.321 85.4747 203.918 83.0499 202.316ZM126.696 214.735C116.391 214.735 106.692 212.932 97.5985 209.527C97.3965 209.327 96.9923 209.126 96.7903 208.926C94.3655 207.123 91.9408 205.321 89.9203 203.318C73.1486 188.093 62.439 166.06 62.439 141.621C62.439 95.3487 100.225 57.8904 146.903 57.8904C152.157 57.8904 157.411 58.291 162.463 59.2926C177.011 66.3036 189.135 77.3208 197.219 90.7417C203.28 100.557 207.322 111.975 208.534 123.993C208.938 126.998 209.14 130.003 209.14 133.008C209.14 178.078 172.162 214.735 126.696 214.735Z" fill="#FBA534"/>
</svg>

<svg xmlns="http://www.w3.org/2000/svg" fill="none" viewBox="0 0 215 256"><path fill="#FBA534" d="m55.77 256 27.684-37.86c10.71 4.007 22.43 6.211 34.554 6.211 4.041 0 8.284-.201 12.123-.802h.404C178.224 217.339 215 177.076 215 128.2c0-15.023-3.435-29.246-9.699-41.665-1.819-4.006-4.041-7.612-6.466-11.217-3.031-4.608-6.466-8.814-10.104-12.62-4.849-5.208-10.305-9.815-16.165-13.621C174.183 32.05 187.115 0 187.115 0l-24.45 29.646c-17.176-14.222-39.202-22.835-63.45-22.835C44.455 6.81 0 50.879 0 105.365c0 31.249 16.368 57.89 35.766 79.323 9.497 10.617 19.6 18.83 31.523 25.841zM15.156 113.978c0-53.083 43.445-96.15 96.993-96.15 17.983 0 34.957 4.807 49.304 13.22l-7.274 8.013c-11.114-4.407-23.44-7.01-36.372-7.01-53.548 0-96.993 43.066-96.993 96.149 0 9.415 1.415 18.629 4.041 27.443-6.264-12.62-9.699-26.842-9.699-41.665m67.895 88.338c-23.44-14.423-39-40.263-39-69.508 0-32.452 18.995-60.495 46.679-73.716-22.43 16.827-36.979 43.669-36.979 73.716 0 28.044 12.528 53.082 32.33 69.909 1.415 1.201 3.032 2.604 4.648 3.805-2.626-1.201-5.253-2.604-7.678-4.206m43.646 12.419c-10.305 0-20.004-1.803-29.097-5.208-.203-.2-.607-.401-.809-.601-2.425-1.803-4.85-3.605-6.87-5.608C73.15 188.093 62.44 166.06 62.44 141.621c0-46.272 37.786-83.73 84.464-83.73 5.254 0 10.508.4 15.56 1.402 14.548 7.01 26.672 18.028 34.756 31.449 6.061 9.815 10.103 21.233 11.315 33.251q.606 4.507.606 9.015c0 45.07-36.978 81.727-82.444 81.727"/></svg>
